static/assets/images/networks/taiko-mono-1.svg

<svg width="285" height="256" viewBox="0 0 285 256" fill="none" xmlns="http://www.w3.org/2000/svg">
<path d="M279.014 206.798L230.176 140.21C227.646 136.743 224.426 133.84 220.721 131.684C217.016 129.528 212.906 128.167 208.65 127.684C207.707 127.576 206.803 127.247 206.01 126.725C205.218 126.202 204.558 125.5 204.085 124.675C203.612 123.85 203.338 122.925 203.286 121.974C203.235 121.024 203.406 120.074 203.786 119.202C205.499 115.263 206.378 111.011 206.369 106.713C206.361 102.416 205.463 98.167 203.735 94.2351L170.696 18.4989C168.3 12.9984 164.356 8.31857 159.349 5.03281C154.341 1.74704 148.487 -0.00198454 142.504 1.68983e-06C136.521 0.00107695 130.668 1.75132 125.66 5.03669C120.653 8.32206 116.709 13.0002 114.309 18.4989L81.2673 94.2351C79.5433 98.1683 78.6489 102.417 78.6403 106.713C78.6317 111.01 79.5091 115.262 81.2174 119.202C81.9832 120.977 81.8621 123.008 80.9111 124.679C80.4368 125.501 79.7777 126.201 78.9861 126.723C78.1945 127.244 77.2925 127.573 76.3518 127.683C72.0959 128.165 67.9859 129.527 64.2809 131.683C60.5759 133.839 57.3564 136.742 54.8255 140.208L5.98814 206.798C2.44376 211.635 0.379568 217.402 0.0475021 223.397C-0.284564 229.391 1.12986 235.353 4.11814 240.554C7.11403 245.749 11.5513 249.957 16.8891 252.666C22.2269 255.374 28.2348 256.467 34.1806 255.81L116.058 246.663C120.315 246.199 124.429 244.853 128.14 242.712C131.851 240.57 135.08 237.679 137.62 234.222C138.184 233.455 138.919 232.832 139.767 232.402C140.614 231.972 141.55 231.748 142.5 231.747C144.423 231.747 146.224 232.669 147.38 234.222C149.921 237.679 153.149 240.57 156.86 242.712C160.572 244.853 164.685 246.199 168.942 246.663L250.818 255.81C256.765 256.475 262.776 255.386 268.115 252.676C273.455 249.967 277.891 245.754 280.882 240.554C283.87 235.353 285.285 229.391 284.953 223.397C284.62 217.402 282.558 211.635 279.014 206.798ZM102.628 103.741L135.718 27.9191C136.298 26.5925 137.249 25.4636 138.457 24.6698C139.664 23.876 141.076 23.4517 142.52 23.4484C143.964 23.4514 145.376 23.8755 146.583 24.6693C147.791 25.4631 148.743 26.5922 149.323 27.9191L182.411 103.741C182.926 104.919 183.139 106.207 183.032 107.489C182.926 108.771 182.502 110.006 181.799 111.082C181.097 112.158 180.138 113.041 179.01 113.651C177.882 114.262 176.619 114.58 175.337 114.578H109.684C108.402 114.578 107.14 114.258 106.012 113.647C104.884 113.036 103.924 112.153 103.221 111.078C102.523 110 102.103 108.766 101.999 107.485C101.895 106.204 102.113 104.917 102.628 103.741ZM119.615 219.171C119.036 220.319 118.18 221.304 117.126 222.037C116.072 222.77 114.852 223.227 113.577 223.367L31.6178 232.515C30.1832 232.676 28.733 232.414 27.4437 231.763C26.1543 231.112 25.0813 230.099 24.3551 228.847C23.6332 227.593 23.2921 226.154 23.3737 224.708C23.4553 223.262 23.9561 221.871 24.8146 220.706L73.7018 154.049C74.4594 153.013 75.4628 152.183 76.621 151.635C77.7792 151.087 79.0554 150.837 80.334 150.909C81.6149 150.978 82.8583 151.366 83.9514 152.04C85.0444 152.713 85.9522 153.65 86.5923 154.765L86.6422 154.851L119.376 211.747L119.428 211.831C120.07 212.943 120.425 214.199 120.46 215.483C120.495 216.768 120.21 218.041 119.631 219.187L119.615 219.171ZM149.236 193.436C148.553 194.622 147.572 195.607 146.39 196.293C145.209 196.979 143.869 197.341 142.504 197.344C141.14 197.343 139.8 196.983 138.618 196.301C137.436 195.618 136.454 194.636 135.768 193.454L110.619 149.748C109.934 148.564 109.573 147.219 109.573 145.849C109.573 144.48 109.934 143.135 110.619 141.95C111.302 140.764 112.283 139.779 113.464 139.093C114.646 138.408 115.986 138.045 117.351 138.043H167.635C170.408 138.043 172.974 139.51 174.368 141.932C175.054 143.117 175.414 144.463 175.414 145.832C175.414 147.202 175.054 148.547 174.368 149.732L149.236 193.436ZM260.668 228.847C259.944 230.102 258.872 231.118 257.582 231.773C256.293 232.427 254.842 232.691 253.405 232.533L171.444 223.385C170.17 223.245 168.951 222.788 167.897 222.056C166.843 221.324 165.988 220.34 165.409 219.193C164.83 218.045 164.545 216.772 164.581 215.486C164.616 214.201 164.97 212.944 165.611 211.831L165.663 211.747L198.395 154.851L198.447 154.765C199.087 153.65 199.995 152.713 201.088 152.04C202.181 151.366 203.424 150.978 204.705 150.909C205.983 150.841 207.258 151.092 208.415 151.64C209.572 152.188 210.576 153.016 211.336 154.049L260.225 220.706C261.077 221.874 261.572 223.265 261.651 224.711C261.73 226.156 261.388 227.593 260.668 228.847Z" fill="black"/>
</svg>

<svg xmlns="http://www.w3.org/2000/svg" fill="none" viewBox="0 0 285 256"><path fill="#000" d="m279.014 206.798-48.838-66.588a31 31 0 0 0-9.455-8.526 30.9 30.9 0 0 0-12.071-4 6.06 6.06 0 0 1-4.565-3.009 6.1 6.1 0 0 1-.299-5.473 31.16 31.16 0 0 0-.051-24.967L170.696 18.5a30.83 30.83 0 0 0-11.347-13.466A30.7 30.7 0 0 0 142.504 0a30.7 30.7 0 0 0-16.844 5.037 30.87 30.87 0 0 0-11.351 13.462L81.267 94.235a31.24 31.24 0 0 0-.05 24.967 6.15 6.15 0 0 1-.306 5.477 6.08 6.08 0 0 1-4.56 3.004 30.9 30.9 0 0 0-12.07 4 31 31 0 0 0-9.456 8.525l-48.837 66.59a31 31 0 0 0-1.87 33.756 30.9 30.9 0 0 0 12.771 12.112 30.75 30.75 0 0 0 17.292 3.144l81.877-9.147a30.9 30.9 0 0 0 12.082-3.951 31 31 0 0 0 9.48-8.49 6.08 6.08 0 0 1 4.88-2.475c1.923 0 3.724.922 4.88 2.475a31 31 0 0 0 9.48 8.49 30.9 30.9 0 0 0 12.082 3.951l81.876 9.147a30.7 30.7 0 0 0 17.297-3.134 30.8 30.8 0 0 0 12.767-12.122 31 31 0 0 0-1.868-33.756M102.628 103.741l33.09-75.822a7.46 7.46 0 0 1 2.739-3.25 7.43 7.43 0 0 1 4.063-1.22 7.4 7.4 0 0 1 4.063 1.22 7.47 7.47 0 0 1 2.74 3.25l33.088 75.822a7.75 7.75 0 0 1-.612 7.341 7.71 7.71 0 0 1-6.462 3.496h-65.653a7.7 7.7 0 0 1-3.672-.931 7.74 7.74 0 0 1-2.791-2.569 7.77 7.77 0 0 1-.593-7.337m16.987 115.43a7.7 7.7 0 0 1-2.489 2.866 7.7 7.7 0 0 1-3.549 1.33l-81.96 9.148a7.4 7.4 0 0 1-4.173-.752 7.46 7.46 0 0 1-3.089-2.916 7.46 7.46 0 0 1 .46-8.141l48.887-66.657a7.7 7.7 0 0 1 2.919-2.414 7.7 7.7 0 0 1 3.713-.726 7.7 7.7 0 0 1 6.258 3.856l.05.086 32.734 56.896.052.084a7.73 7.73 0 0 1 .203 7.356zm29.621-25.735a7.8 7.8 0 0 1-2.846 2.857 7.77 7.77 0 0 1-3.886 1.051 7.79 7.79 0 0 1-6.736-3.89l-25.149-43.706a7.79 7.79 0 0 1 0-7.798 7.78 7.78 0 0 1 6.732-3.907h50.284a7.75 7.75 0 0 1 6.733 3.889 7.79 7.79 0 0 1 0 7.8zm111.432 35.411a7.46 7.46 0 0 1-3.086 2.926 7.43 7.43 0 0 1-4.177.76l-81.961-9.148a7.7 7.7 0 0 1-3.547-1.329 7.7 7.7 0 0 1-2.488-2.863 7.75 7.75 0 0 1-.828-3.707 7.75 7.75 0 0 1 1.03-3.655l.052-.084 32.732-56.896.052-.086a7.7 7.7 0 0 1 6.258-3.856 7.7 7.7 0 0 1 3.71.731 7.74 7.74 0 0 1 2.921 2.409l48.889 66.657a7.49 7.49 0 0 1 .443 8.141"/></svg>
